X:2
T:The Diplodocus, pt.2
C:Liz Carroll
R:jig
M:6/8
L:1/8
K:AMix
efe e2d|cAB AGE|~g3 gef|gag fed|
efe e2d|cAB AGE|DFF G2A|BAA Afg|]
aAA Aaf|~g3 efg|fdd def|~g3 efg|
aAA Aaf|~g3 efg|fdd e2d|1 cAA Afg:|2 cAA A2B|]
<abc>
